X:1
T:Title
%%score { ( 1 3 ) | 2 }
L:1/8
Q:1/4=100
M:6/8
K:F
V:1 treble nm="Grand Piano"
V:3 treble 
V:2 bass 
V:1
 C2 F F2 G | A2 A AGF | [EG]3 [EG][CF][EG] | A6 | C2 F F2 G | A2 A AGF | [EG]3 [EG][EA][EG] | F6 | %8
w: W.~Stillman~Martin * * *||||||||
 c3 ABc | [Fd]6 | [Ed]3 [EG][FA][GB] | [Fc]6 | A3 FGA | [DFc]2 [DFB] [CDA]2 [B,DG] | %14
w: ||||||
 [A,CF]3 [G,CE][A,CF][B,CG] | [F,A,CF]6 |] %16
w: ||
V:2
 [F,A,]2 [F,A,C] [F,A,C]2 [F,B,E] | [F,CF]2 [F,CF] [F,CF][F,B,E][F,A,C] | %2
 [C,C]3 [C,B,][C,A,][C,C] | [F,CF]6 | [F,A,]2 [F,A,C] [F,A,C]2 [F,B,E] | %5
 [F,CF]2 [F,CF] [F,CF][F,B,E][F,A,C] | [C,B,]3 [C,B,][C,C][C,B,] | [F,A,C]6 | %8
 [F,A,F]3 [F,CF][F,G,F][F,A,F] | [B,,B,]2 B,, B,,3 | [C,B,]3 [C,B,][C,A,][B,C] | [A,C]2 F, F,3 | %12
 [F,CF]3 [F,A,][F,B,F][F,CF] | B,,2 B,, B,,2 B,, | C,3 C,C,C, | F,,6 |] %16
V:3
 x6 | x6 | x6 | x6 | x6 | x6 | x6 | x6 | x6 | z2 B, B,3 | x6 | z2 A, A,3 | x6 | x6 | x6 | x6 |] %16

